app/component-library/components/Icons/Icon/assets/received.svg

<svg width="24" height="24" viewBox="0 0 24 24" fill="none" xmlns="http://www.w3.org/2000/svg">
<path d="M5.28022 18.2499C5.09022 18.2499 4.90021 18.1799 4.75021 18.0299C4.46021 17.7399 4.46021 17.2599 4.75021 16.9699L18.7502 2.96994C19.0402 2.67994 19.5202 2.67994 19.8102 2.96994C20.1002 3.25994 20.1002 3.73994 19.8102 4.02994L5.81022 18.0299C5.66022 18.1799 5.47022 18.2499 5.28022 18.2499Z" fill="currentColor"/>
<path d="M15.5508 18.25L5.28022 18.2499C4.87022 18.2499 4.53076 17.91 4.53076 17.5V7.22998C4.53076 6.81998 4.87076 6.47998 5.28076 6.47998C5.69076 6.47998 6.03076 6.81998 6.03076 7.22998V16.75H15.5508C15.9608 16.75 16.3008 17.09 16.3008 17.5C16.3008 17.91 15.9608 18.25 15.5508 18.25Z" fill="currentColor"/>
<path d="M20.7808 22.75H3.78076C3.37076 22.75 3.03076 22.41 3.03076 22C3.03076 21.59 3.37076 21.25 3.78076 21.25H20.7808C21.1908 21.25 21.5308 21.59 21.5308 22C21.5308 22.41 21.1908 22.75 20.7808 22.75Z" fill="currentColor"/>
</svg>

<svg xmlns="http://www.w3.org/2000/svg" width="24" height="24" viewBox="0 0 24 24" fill="none"><path fill="currentColor" d="M5.28 18.25c-.19 0-.38-.07-.53-.22a.754.754 0 0 1 0-1.06l14-14c.29-.29.77-.29 1.06 0 .29.29.29.77 0 1.06l-14 14c-.15.15-.34.22-.53.22Z"/><path fill="currentColor" d="M15.55 18.25H5.28c-.41 0-.75-.34-.75-.75V7.23c0-.41.34-.75.75-.75s.75.34.75.75v9.52h9.52c.41 0 .75.34.75.75s-.34.75-.75.75ZM20.78 22.75h-17c-.41 0-.75-.34-.75-.75s.34-.75.75-.75h17c.41 0 .75.34.75.75s-.34.75-.75.75Z"/></svg>
